svg/color/bold.svg

<?xml version="1.0" encoding="UTF-8" ?>
<!DOCTYPE svg PUBLIC "-//W3C//DTD SVG 1.1//EN" "http://www.w3.org/Graphics/SVG/1.1/DTD/svg11.dtd">
<svg width="250pt" height="250pt" viewBox="0 0 250 250" version="1.1" xmlns="http://www.w3.org/2000/svg">
<g id="#ffffffff">
<path fill="#ffffff" opacity="1.00" d=" M 0.00 0.00 L 250.00 0.00 L 250.00 250.00 L 0.00 250.00 L 0.00 0.00 M 129.03 61.34 C 128.73 65.33 129.13 69.32 128.80 73.31 C 126.01 73.28 123.21 73.29 120.42 73.36 C 120.40 69.37 120.41 65.38 120.42 61.39 C 116.88 61.40 113.35 61.43 109.82 61.52 C 109.82 65.78 109.82 70.03 109.80 74.29 C 101.00 75.71 91.78 78.86 86.03 86.06 C 81.90 91.80 80.79 99.14 80.57 106.06 C 80.58 120.03 80.51 134.01 80.61 147.98 C 81.02 154.97 82.28 162.50 87.02 167.96 C 92.88 174.35 101.50 177.11 109.81 178.57 C 109.82 181.83 109.82 185.09 109.82 188.35 C 113.35 188.42 116.88 188.46 120.41 188.48 C 120.41 185.49 120.41 182.50 120.41 179.51 C 123.32 179.55 126.24 179.62 129.15 179.65 C 128.91 182.58 128.83 185.52 128.82 188.46 C 132.37 188.53 135.92 188.52 139.48 188.51 C 139.47 185.30 139.46 182.09 139.54 178.89 C 147.62 178.14 155.96 175.66 161.97 169.98 C 167.35 164.48 168.41 156.35 168.71 149.02 C 168.85 135.01 168.73 121.00 168.77 107.00 C 168.74 99.77 168.17 92.10 164.33 85.79 C 158.76 77.76 148.61 75.07 139.45 73.76 C 139.48 69.60 139.47 65.43 139.49 61.27 C 136.00 61.26 132.52 61.28 129.03 61.34 Z" />
<path fill="#ffffff" opacity="1.00" d=" M 121.99 97.91 C 123.58 96.98 125.52 97.35 127.27 97.47 C 129.79 101.21 129.00 105.77 128.87 109.99 C 128.82 124.76 129.28 139.55 128.55 154.30 C 126.12 156.22 121.19 156.45 120.57 152.63 C 120.18 137.42 120.55 122.17 120.39 106.94 C 120.47 103.90 119.93 100.47 121.99 97.91 Z" />
</g>
<g id="#f8001eff">
<path fill="#f8001e" opacity="1.00" d=" M 129.03 61.34 C 132.52 61.28 136.00 61.26 139.49 61.27 C 139.47 65.43 139.48 69.60 139.45 73.76 C 148.61 75.07 158.76 77.76 164.33 85.79 C 168.17 92.10 168.74 99.77 168.77 107.00 C 168.73 121.00 168.85 135.01 168.71 149.02 C 168.41 156.35 167.35 164.48 161.97 169.98 C 155.96 175.66 147.62 178.14 139.54 178.89 C 139.46 182.09 139.47 185.30 139.48 188.51 C 135.92 188.52 132.37 188.53 128.82 188.46 C 128.83 185.52 128.91 182.58 129.15 179.65 C 126.24 179.62 123.32 179.55 120.41 179.51 C 120.41 182.50 120.41 185.49 120.41 188.48 C 116.88 188.46 113.35 188.42 109.82 188.35 C 109.82 185.09 109.82 181.83 109.81 178.57 C 101.50 177.11 92.88 174.35 87.02 167.96 C 82.28 162.50 81.02 154.97 80.61 147.98 C 80.51 134.01 80.58 120.03 80.57 106.06 C 80.79 99.14 81.90 91.80 86.03 86.06 C 91.78 78.86 101.00 75.71 109.80 74.29 C 109.82 70.03 109.82 65.78 109.82 61.52 C 113.35 61.43 116.88 61.40 120.42 61.39 C 120.41 65.38 120.40 69.37 120.42 73.36 C 123.21 73.29 126.01 73.28 128.80 73.31 C 129.13 69.32 128.73 65.33 129.03 61.34 M 121.99 97.91 C 119.93 100.47 120.47 103.90 120.39 106.94 C 120.55 122.17 120.18 137.42 120.57 152.63 C 121.19 156.45 126.12 156.22 128.55 154.30 C 129.28 139.55 128.82 124.76 128.87 109.99 C 129.00 105.77 129.79 101.21 127.27 97.47 C 125.52 97.35 123.58 96.98 121.99 97.91 Z" />
</g>
</svg>

<?xml version="1.0" encoding="utf-8"?>
<!-- Generator: Adobe Illustrator 26.0.3, SVG Export Plug-In . SVG Version: 6.00 Build 0)  -->
<svg version="1.1" id="Layer_1" xmlns="http://www.w3.org/2000/svg" xmlns:xlink="http://www.w3.org/1999/xlink" x="0px" y="0px"
	 viewBox="0 0 250 250" style="enable-background:new 0 0 250 250;" xml:space="preserve">
<style type="text/css">
	.st0{fill:#FFFFFF;}
	.st1{fill:#F8001E;}
</style>
<circle class="st0" cx="125" cy="125.5" r="125"/>
<g id="_x23_ffffffff">
	<path class="st0" d="M250,250H0V0 M0,0h250 M129,61.3c-0.3,4,0.1,8-0.2,12c-2.8,0-5.6,0-8.4,0.1c0-4,0-8,0-12
		c-3.5,0-7.1,0-10.6,0.1c0,4.3,0,8.5,0,12.8c-8.8,1.4-18,4.6-23.8,11.8c-4.1,5.7-5.2,13.1-5.5,20c0,14-0.1,27.9,0,41.9
		c0.4,7,1.7,14.5,6.4,20c5.9,6.4,14.5,9.1,22.8,10.6c0,3.3,0,6.5,0,9.8c3.5,0.1,7.1,0.1,10.6,0.1c0-3,0-6,0-9c2.9,0,5.8,0.1,8.7,0.1
		c-0.2,2.9-0.3,5.9-0.3,8.8c3.5,0.1,7.1,0.1,10.7,0c0-3.2,0-6.4,0.1-9.6c8.1-0.8,16.4-3.2,22.4-8.9c5.4-5.5,6.4-13.6,6.7-21
		c0.1-14,0-28,0.1-42c0-7.2-0.6-14.9-4.4-21.2c-5.6-8-15.7-10.7-24.9-12c0-4.2,0-8.3,0-12.5C136,61.3,132.5,61.3,129,61.3z"/>
	<path class="st0" d="M122,97.9c1.6-0.9,3.5-0.6,5.3-0.4c2.5,3.7,1.7,8.3,1.6,12.5c0,14.8,0.4,29.6-0.3,44.3c-2.4,1.9-7.4,2.1-8-1.7
		c-0.4-15.2,0-30.5-0.2-45.7C120.5,103.9,119.9,100.5,122,97.9z"/>
</g>
<g id="_x23_f8001eff">
	<path class="st1" d="M129,61.3c3.5-0.1,7-0.1,10.5-0.1c0,4.2,0,8.3,0,12.5c9.2,1.3,19.3,4,24.9,12c3.8,6.3,4.4,14,4.4,21.2
		c0,14,0.1,28-0.1,42c-0.3,7.3-1.4,15.5-6.7,21c-6,5.7-14.4,8.2-22.4,8.9c-0.1,3.2-0.1,6.4-0.1,9.6c-3.6,0-7.1,0-10.7,0
		c0-2.9,0.1-5.9,0.3-8.8c-2.9,0-5.8-0.1-8.7-0.1c0,3,0,6,0,9c-3.5,0-7.1-0.1-10.6-0.1c0-3.3,0-6.5,0-9.8
		c-8.3-1.5-16.9-4.2-22.8-10.6c-4.7-5.5-6-13-6.4-20c-0.1-14,0-27.9,0-41.9c0.2-6.9,1.3-14.3,5.5-20c5.8-7.2,15-10.3,23.8-11.8
		c0-4.3,0-8.5,0-12.8c3.5-0.1,7.1-0.1,10.6-0.1c0,4,0,8,0,12c2.8-0.1,5.6-0.1,8.4-0.1C129.1,69.3,128.7,65.3,129,61.3 M122,97.9
		c-2.1,2.6-1.5,6-1.6,9c0.2,15.2-0.2,30.5,0.2,45.7c0.6,3.8,5.6,3.6,8,1.7c0.7-14.8,0.3-29.5,0.3-44.3c0.1-4.2,0.9-8.8-1.6-12.5
		C125.5,97.3,123.6,97,122,97.9z"/>
</g>
</svg>
